X:284
T:Long Cold Winter
C:Written by Kenny Baker as played by Blaine Srouse
N:Transcribed by Vance Henry
R:bluegrass
L:1/8
Q:1/4=236
M:4/4
K:G
z6 G,A, |: "Em"B,E2B, E2 EF | GD FG EG DB, | "G"G,B, DG EF GA | BA Be dB GA | 
"Em"Bd/^d/ e2 [e2e2] ef | ge fg (3fgf eB | cB AG EF GA | "B7"BG AG "Em"E2 z2 | 
EB, G,B, E4 | z2 G,A, B,2 [E2B,2] | [E2B,2] EF GD FG | (3EGE DB, "G"G,B, DG | 
EF GA BA Be | dB GA "Em"Bd/^d/ e2 | [e2e2] ef ge fg | (3fgf ed (3BcB AG | EF GA B"B7"G AG | 
"Em"E2 z2 EB, G,B, | E6 B2 | z2 [e2e2] [e2e2] ef | ge fg (3fgf ed | "G"B2 [g2d2D2G,2] [g2d2D2G,2] [gdD][gdD] | 
[g2B2D2G,2] [gdDG,][gdDG,] [g2d2D2G,2] B2 | "Em"z2 [e2e2] [e2e2] ef | ge fg (3fgf eB | 
cB AG EF GA | "B7"BG AG "Em"E2 z2 | EB, G,B, E4 | z2 ^AB z2 [e2e2] | [e2e2] ef ge fg | 
(3fgf ed "G"B2 [gd][gd] | [g2d2D2G,2] [g2d2D2G,2] [gBDG,][gBDG,] [gdDG,][gdDG,] | 
[gd][gdDG,] ^AB "Em"z2 [e2e2] | [e2e2] ef ge fg | (3fgf eB cB AG | EF GA "B7"BG AG | 
"Em"E2 z2 EB, G,B, | E4 z4 | Be gb3 b2 | Be gb3 b2 | b2 b2 "G"a2 g2 | "B7"[b2^d2] [b/d/][b/d/][b/d/][b/d/] [b/d/][b/d/][b/d/][b/d/] [b2d2] | 
B^d fb af ab | af ^df Bd fa | b^a =ab ga (3fgf | "Em"ed B2 zG EG | B4 z4 | Be gb3 b2 | 
Be gb3 b2 | b2 b2 "G"a2 g2 | "B7"[b2^d2] [bd][bd] [b2d2] [b2d2] | B^d fb af ab | 
af ^df Bd fa | b^a =ab ga (3fgf | "Em"ed B2 BG EG | B4 z4 :| ^AB =AG EF GA | BG AG EF GA | 
^AB =AG EF GA | "B7"BG AG "Em"E4 | ^AB =AG EF GA | BG AG EF GA | ^AB =AG EF GA | 
"B7"BG AG [g4B4G4B,4] | 


